X: 38445
T: Stasia's
R: reel
M: 4/4
K: Eminor
E3D E~B3|DEED EBGB|DEED EGBG|FAcA A/B/dgf|
eB^AB dc zc|AGFA cB zB|E~B3 EBAF|1 GEFD Ez ED:|2 G/F/EFD Ez2G||
|:AGFA cBBB|Be^dB e2 ef|g~B3 gBaB|bB^AB dc zc|
AGFA cBBB|Be^dB e2 ef|g~B3 GBAF|1 GEED E z2 G:|2 GEED E2 ED||
|:[K:Emaj]E2 GB A2 ce|B2 df eB B2|[K:Emin]d~c3 AGFA|cB^AB cBAB|
[K:Emaj]E2 GB A2 ce|B2 df eB B2|[K:Emin]d~c3 AGFA|1 GEFD E2 ED:|2 GEFD E4||

